Automatic/src/svg/VTech - Socrates.svg

<svg xmlns="http://www.w3.org/2000/svg" xml:space="preserve" width="320" height="224"><defs><clipPath id="a" clipPathUnits="userSpaceOnUse"><path d="M0 256h256V0H0Z"/></clipPath></defs><g clip-path="url(#a)" transform="matrix(1.33333 0 0 -1.33333 -10.667 282.667)"><path d="M0 0h-104l-4-4h-50.952l.774.396L12 83.464V12C12 5.373 6.627 0 0 0m-181.065-11.569a4.1 4.1 0 0 0-1.833-.431 4.11 4.11 0 0 0-3.627 2.158l-28.991 53.927a4.06 4.06 0 0 0 1.787 5.561l18.096 8.623.104-.194 32-60 .005-.011zM-208-4c-6.627 0-12 5.373-12 12v37.967a8 8 0 0 1 .961-3.777L-194.208-4Zm0 152h175.461l-161.317-84.5-1.501-.786-.047.095-20.045-9.551-.029-.014-.028-.014a8.02 8.02 0 0 1-4.113-4.785 8 8 0 0 1-.381-2.324V136c0 6.627 5.373 12 12 12m208 0c.621 0 1.227-.062 1.822-.153a11.995 11.995 0 0 0 9.85-9.1c.025-.11.061-.217.084-.329.027-.133.039-.271.062-.406.111-.656.182-1.325.182-2.012V87.957l-172-88-32 60 168 88L-.021 148zm15.279-7.247q-.234.751-.539 1.469C12.309 147.963 6.617 152 0 152h-208c-8.822 0-16-7.178-16-16V8c0-8.822 7.178-16 16-16h15.943l2.008-3.736A8.1 8.1 0 0 1-182.898-16c1.244 0 2.493.293 3.611.848l.075.037.073.04L-166.257-8h59.914l1.172 1.172L-102.343-4H0c8.822 0 16 7.178 16 16v124c0 1.654-.252 3.25-.721 4.753" style="fill:#fff;fill-opacity:1;fill-rule:nonzero;stroke:none" transform="translate(232 60)"/><path d="M0 0a1 1 0 0 0 1 1h45.382a1 1 0 0 0 .894-1.447l-3-6A1 1 0 0 0 43.382-7H1a1 1 0 0 0-1 1zm53.294-4.411L55.506.011a1.79 1.79 0 0 0 3.2-1.6l-2.211-4.422a1.79 1.79 0 0 0-3.201 1.6m8 0L63.506.011a1.79 1.79 0 0 0 3.2-1.6l-2.211-4.422a1.79 1.79 0 0 0-3.201 1.6m8 0L71.506.011a1.79 1.79 0 0 0 3.2-1.6l-2.211-4.422a1.79 1.79 0 0 0-3.201 1.6m8 0L79.506.011a1.79 1.79 0 0 0 3.2-1.6l-2.211-4.422a1.79 1.79 0 0 0-3.201 1.6m8 0L87.506.011a1.79 1.79 0 0 0 3.2-1.6l-2.211-4.422a1.79 1.79 0 0 0-3.201 1.6m8 0L95.506.011a1.79 1.79 0 0 0 3.2-1.6l-2.211-4.422a1.79 1.79 0 0 0-3.201 1.6m8.001 0 2.211 4.422a1.788 1.788 0 1 0 3.199-1.6l-2.211-4.422a1.788 1.788 0 1 0-3.199 1.6m8 0 2.211 4.422a1.788 1.788 0 1 0 3.199-1.6l-2.211-4.422a1.788 1.788 0 1 0-3.199 1.6m8 0 2.211 4.422a1.788 1.788 0 1 0 3.199-1.6l-2.211-4.422a1.788 1.788 0 1 0-3.199 1.6M1-11h42.382a4.97 4.97 0 0 1 4.472 2.764l1.275 2.55a5.8 5.8 0 0 1 .841-2.568A5.75 5.75 0 0 1 54.895-11c1.525 0 2.943.586 4.001 1.599A5.75 5.75 0 0 1 62.895-11c1.525 0 2.943.586 4.001 1.599A5.75 5.75 0 0 1 70.895-11c1.525 0 2.943.586 4.001 1.599A5.75 5.75 0 0 1 78.895-11c1.525 0 2.943.586 4.001 1.599A5.75 5.75 0 0 1 86.895-11a5.76 5.76 0 0 1 4 1.599 5.76 5.76 0 0 1 4-1.599 5.76 5.76 0 0 1 4 1.599 5.76 5.76 0 0 1 4-1.599c1.525 0 2.944.586 4.001 1.599A5.75 5.75 0 0 1 110.895-11c1.525 0 2.944.586 4.001 1.599A5.75 5.75 0 0 1 118.895-11a5.76 5.76 0 0 1 5.177 3.2l2.211 4.422a5.75 5.75 0 0 1-.253 5.632A5.75 5.75 0 0 1 121.105 5a5.76 5.76 0 0 1-4.001-1.599A5.75 5.75 0 0 1 113.105 5a5.76 5.76 0 0 1-4.001-1.599A5.75 5.75 0 0 1 105.105 5a5.76 5.76 0 0 1-4.001-1.599A5.75 5.75 0 0 1 97.105 5a5.76 5.76 0 0 1-4-1.599 5.76 5.76 0 0 1-4 1.599 5.76 5.76 0 0 1-4-1.599 5.76 5.76 0 0 1-4 1.599 5.76 5.76 0 0 1-4-1.599 5.76 5.76 0 0 1-4 1.599 5.76 5.76 0 0 1-4-1.599 5.76 5.76 0 0 1-4 1.599 5.76 5.76 0 0 1-4-1.599 5.76 5.76 0 0 1-4 1.599 5.76 5.76 0 0 1-5.177-3.2l-.59-1.179a5 5 0 0 1-.703 2.008A4.97 4.97 0 0 1 46.382 5H1c-2.757 0-5-2.243-5-5v-6c0-2.757 2.243-5 5-5" style="fill:#fff;fill-opacity:1;fill-rule:nonzero;stroke:none" transform="translate(28 199)"/><path d="M0 0c-6.627 0-12 5.373-12 12s5.373 12 12 12 12-5.373 12-12S6.627 0 0 0m0 28c-8.822 0-16-7.178-16-16S-8.822-4 0-4s16 7.178 16 16S8.822 28 0 28" style="fill:#fff;fill-opacity:1;fill-rule:nonzero;stroke:none" transform="translate(216 88)"/></g></svg>

<?xml version="1.0" encoding="UTF-8" standalone="no"?>
<svg
   xmlns:dc="http://purl.org/dc/elements/1.1/"
   xmlns:cc="http://creativecommons.org/ns#"
   xmlns:rdf="http://www.w3.org/1999/02/22-rdf-syntax-ns#"
   xmlns:svg="http://www.w3.org/2000/svg"
   xmlns="http://www.w3.org/2000/svg"
   viewBox="0 0 320 224"
   height="224"
   width="320"
   xml:space="preserve"
   id="svg2"
   version="1.1"><metadata
     id="metadata8"><rdf:RDF><cc:Work
         rdf:about=""><dc:format>image/svg+xml</dc:format><dc:type
           rdf:resource="http://purl.org/dc/dcmitype/StillImage" /></cc:Work></rdf:RDF></metadata><defs
     id="defs6"><clipPath
       id="clipPath18"
       clipPathUnits="userSpaceOnUse"><path
         id="path16"
         d="M 0,256 H 256 V 0 H 0 Z" /></clipPath></defs><g
     transform="matrix(1.3333333,0,0,-1.3333333,-10.666666,282.66666)"
     id="g10"><g
       id="g12"><g
         clip-path="url(#clipPath18)"
         id="g14"><g
           transform="translate(232,60)"
           id="g20"><path
             id="path22"
             style="fill:#ffffff;fill-opacity:1;fill-rule:nonzero;stroke:none"
             d="m 0,0 h -104 l -4,-4 h -50.952 l 0.774,0.396 L 12,83.464 V 12 C 12,5.373 6.627,0 0,0 m -181.065,-11.569 c -0.589,-0.292 -1.216,-0.431 -1.833,-0.431 -1.471,0 -2.89,0.786 -3.627,2.158 l -28.991,53.927 c -1.087,2.022 -0.279,4.537 1.787,5.561 l 18.096,8.623 0.104,-0.194 32,-60 0.005,-0.011 z M -208,-4 c -6.627,0 -12,5.373 -12,12 v 37.967 c 0.004,-1.302 0.324,-2.592 0.961,-3.777 L -194.208,-4 Z m 0,152 h 175.461 l -161.317,-84.5 -1.501,-0.786 -0.047,0.095 -20.045,-9.551 -0.029,-0.014 -0.028,-0.014 c -1.982,-0.983 -3.443,-2.682 -4.113,-4.785 -0.244,-0.764 -0.368,-1.546 -0.381,-2.324 V 136 c 0,6.627 5.373,12 12,12 m 208,0 c 0.621,0 1.227,-0.062 1.822,-0.153 4.852,-0.741 8.741,-4.378 9.85,-9.1 0.025,-0.11 0.061,-0.217 0.084,-0.329 0.027,-0.133 0.039,-0.271 0.062,-0.406 C 11.929,137.356 12,136.687 12,136 V 87.957 l -172,-88 -32,60 168,88 23.979,0.043 z m 15.279,-7.247 c -0.156,0.5 -0.336,0.991 -0.539,1.469 C 12.309,147.963 6.617,152 0,152 H -0.005 -0.021 -208 c -8.822,0 -16,-7.178 -16,-16 V 8 c 0,-8.822 7.178,-16 16,-16 h 15.943 l 2.008,-3.736 c 1.414,-2.63 4.154,-4.264 7.151,-4.264 1.244,0 2.493,0.293 3.611,0.848 l 0.075,0.037 0.073,0.04 12.882,7.075 h 58.257 1.657 l 1.172,1.172 2.828,2.828 H 0 c 8.822,0 16,7.178 16,16 V 85.51 87.957 136 c 0,1.654 -0.252,3.25 -0.721,4.753" /></g><g
           transform="translate(28,199)"
           id="g24"><path
             id="path26"
             style="fill:#ffffff;fill-opacity:1;fill-rule:nonzero;stroke:none"
             d="m 0,0 c 0,0.552 0.448,1 1,1 h 45.382 c 0.743,0 1.227,-0.782 0.894,-1.447 l -3,-6 C 44.107,-6.786 43.761,-7 43.382,-7 H 1 c -0.552,0 -1,0.448 -1,1 z m 53.294,-4.411 2.212,4.422 C 55.809,0.617 56.428,1 57.105,1 58.436,1 59.3,-0.399 58.706,-1.589 L 56.495,-6.011 C 56.191,-6.617 55.572,-7 54.895,-7 53.564,-7 52.7,-5.601 53.294,-4.411 m 8,0 2.212,4.422 C 63.809,0.617 64.428,1 65.105,1 66.436,1 67.3,-0.399 66.706,-1.589 L 64.495,-6.011 C 64.191,-6.617 63.572,-7 62.895,-7 61.564,-7 60.7,-5.601 61.294,-4.411 m 8,0 2.212,4.422 C 71.809,0.617 72.428,1 73.105,1 74.436,1 75.3,-0.399 74.706,-1.589 L 72.495,-6.011 C 72.191,-6.617 71.572,-7 70.895,-7 69.564,-7 68.7,-5.601 69.294,-4.411 m 8,0 2.212,4.422 C 79.809,0.617 80.428,1 81.105,1 82.436,1 83.3,-0.399 82.706,-1.589 L 80.495,-6.011 C 80.191,-6.617 79.572,-7 78.895,-7 77.564,-7 76.7,-5.601 77.294,-4.411 m 8,0 2.212,4.422 C 87.809,0.617 88.428,1 89.105,1 90.436,1 91.3,-0.399 90.706,-1.589 L 88.495,-6.011 C 88.191,-6.617 87.572,-7 86.895,-7 85.564,-7 84.7,-5.601 85.294,-4.411 m 8,0 2.212,4.422 C 95.809,0.617 96.428,1 97.105,1 98.436,1 99.3,-0.399 98.706,-1.589 L 96.495,-6.011 C 96.191,-6.617 95.572,-7 94.895,-7 93.564,-7 92.7,-5.601 93.294,-4.411 m 8.001,0 2.211,4.422 c 0.303,0.606 0.922,0.989 1.599,0.989 1.331,0 2.196,-1.399 1.6,-2.589 l -2.211,-4.422 C 104.191,-6.617 103.572,-7 102.895,-7 c -1.331,0 -2.195,1.399 -1.6,2.589 m 8,0 2.211,4.422 c 0.303,0.606 0.922,0.989 1.599,0.989 1.331,0 2.196,-1.399 1.6,-2.589 l -2.211,-4.422 C 112.191,-6.617 111.572,-7 110.895,-7 c -1.331,0 -2.196,1.399 -1.6,2.589 m 8,0 2.211,4.422 c 0.303,0.606 0.922,0.989 1.599,0.989 1.331,0 2.196,-1.399 1.6,-2.589 l -2.211,-4.422 C 120.191,-6.617 119.572,-7 118.895,-7 c -1.331,0 -2.196,1.399 -1.6,2.589 M 1,-11 h 42.382 c 1.906,0 3.62,1.059 4.472,2.764 l 1.275,2.55 c 0.074,-0.893 0.349,-1.772 0.841,-2.568 1.063,-1.72 2.904,-2.746 4.925,-2.746 1.525,0 2.943,0.586 4.001,1.599 1.061,-1.018 2.479,-1.599 3.999,-1.599 1.525,0 2.943,0.586 4.001,1.599 1.061,-1.018 2.479,-1.599 3.999,-1.599 1.525,0 2.943,0.586 4.001,1.599 1.061,-1.018 2.479,-1.599 3.999,-1.599 1.525,0 2.943,0.586 4.001,1.599 1.061,-1.018 2.479,-1.599 3.999,-1.599 1.525,0 2.943,0.586 4,1.599 1.062,-1.018 2.48,-1.599 4,-1.599 1.525,0 2.943,0.586 4,1.599 1.062,-1.018 2.48,-1.599 4,-1.599 1.525,0 2.944,0.586 4.001,1.599 1.061,-1.018 2.479,-1.599 3.999,-1.599 1.525,0 2.944,0.586 4.001,1.599 1.061,-1.018 2.479,-1.599 3.999,-1.599 2.207,0 4.19,1.226 5.177,3.2 l 2.211,4.422 c 0.905,1.808 0.81,3.914 -0.253,5.632 C 124.968,3.974 123.127,5 121.105,5 119.58,5 118.161,4.414 117.104,3.401 116.043,4.419 114.625,5 113.105,5 111.58,5 110.161,4.414 109.104,3.401 108.043,4.419 106.625,5 105.105,5 103.58,5 102.161,4.414 101.104,3.401 100.043,4.419 98.625,5 97.105,5 95.58,5 94.162,4.414 93.105,3.401 92.043,4.419 90.625,5 89.105,5 87.58,5 86.162,4.414 85.105,3.401 84.043,4.419 82.625,5 81.105,5 79.58,5 78.162,4.414 77.105,3.401 76.043,4.419 74.625,5 73.105,5 71.58,5 70.162,4.414 69.105,3.401 68.043,4.419 66.625,5 65.105,5 63.58,5 62.162,4.414 61.105,3.401 60.043,4.419 58.625,5 57.105,5 54.899,5 52.915,3.774 51.928,1.8 L 51.338,0.621 C 51.25,1.32 51.021,2.004 50.635,2.629 49.718,4.113 48.127,5 46.382,5 H 1 C -1.757,5 -4,2.757 -4,0 v -6 c 0,-2.757 2.243,-5 5,-5" /></g><g
           transform="translate(216,88)"
           id="g28"><path
             id="path30"
             style="fill:#ffffff;fill-opacity:1;fill-rule:nonzero;stroke:none"
             d="m 0,0 c -6.627,0 -12,5.373 -12,12 0,6.627 5.373,12 12,12 C 6.627,24 12,18.627 12,12 12,5.373 6.627,0 0,0 M 0,28 C -8.822,28 -16,20.822 -16,12 -16,3.178 -8.822,-4 0,-4 8.822,-4 16,3.178 16,12 16,20.822 8.822,28 0,28" /></g></g></g></g></svg>
